shader_type canvas_item;

void vertex() {
	 // VERTEX.y += sin(TIME + VERTEX.x) / .5;
}

void fragment() {
	
}

//void light() {
	// Called for every pixel for every light affecting the CanvasItem.
	// Uncomment to replace the default light processing function with this one.
//}
